icons/editor-cursor-3-filled.svg

<svg width="25" height="24" viewBox="0 0 25 24" fill="none" xmlns="http://www.w3.org/2000/svg">
<g id="cursor-03">
<path id="Icon" d="M19.2722 21.3649L22.1149 18.5222C22.4289 18.2082 22.4289 17.6991 22.1149 17.3852L17.6333 12.9035C17.2944 12.5647 17.3253 12.0065 17.6995 11.7072L21.4671 8.69309C21.9771 8.28513 21.8137 7.47157 21.1858 7.29216L4.17629 2.43231C3.56977 2.25902 3.00902 2.81977 3.18231 3.42629L8.04216 20.4358C8.22157 21.0637 9.03513 21.2271 9.44309 20.7171L12.4572 16.9495C12.7565 16.5753 13.3147 16.5444 13.6535 16.8833L18.1352 21.3649C18.4491 21.6789 18.9582 21.6789 19.2722 21.3649Z" stroke="black" stroke-width="2" stroke-linecap="round" stroke-linejoin="round"/>
</g>
</svg>

<svg xmlns="http://www.w3.org/2000/svg" width="25" height="24" fill="none" viewBox="0 0 25 24"><path stroke="currentColor" stroke-linecap="round" stroke-linejoin="round" stroke-width="2" d="m19.272 21.365 2.843-2.843a.804.804 0 0 0 0-1.137l-4.482-4.482a.804.804 0 0 1 .067-1.196l3.767-3.014a.804.804 0 0 0-.281-1.4l-17.01-4.86a.804.804 0 0 0-.994.993l4.86 17.01a.804.804 0 0 0 1.401.281l3.014-3.767a.804.804 0 0 1 1.196-.067l4.482 4.482a.804.804 0 0 0 1.137 0"/></svg>
